rospo-dark/16x16/actions/font-select.svg

<svg height="16" viewBox="0 0 16 16" width="16" xmlns="http://www.w3.org/2000/svg"><path d="m6 3-.0078125 2 2.921875.0117188h.0019531c-.0552 0 .0839844.1593512.0839844.0820312v.9238281h-1.0039062c-1.7159001 0-3.0300875 1.125475-3.0546876 2.484375-.0122999.67945.3058282 1.3629657.8613282 1.8222659.5555.45927 1.3153593.699219 2.1933594.699219h3.0039062v-5.929688c0-1.1712-.887134-2.0820312-2.0839844-2.0820312l-2.9101562-.0117188zm-6.00390625 2v6l4.00000005-3zm16.00000025 0-4 3 4 3zm-8.0000002 3.0175781h1.0039062v1.0058594h-1.0039062c-.51941 0-.7937919-.1378975-.9199219-.2421875-.12614-.10429-.1360657-.1721806-.1347657-.2441406.0030001-.14393.0848875-.5195313 1.0546876-.5195313z" fill="#d3dae3"/></svg>

<?xml version="1.0" encoding="UTF-8" standalone="no"?>
<svg xmlns="http://www.w3.org/2000/svg" width="22" height="22" viewBox="0 0 22 22">
 <defs>
  <style type="text/css" id="current-color-scheme">
   .ColorScheme-Text { color:#d3dae3; } .ColorScheme-Highlight { color:#5294e2; }
  </style>
 </defs>
 <path style="fill:currentColor;opacity:1" class="ColorScheme-Text" transform="translate(3 3)" d="M 6 3 L 5.9921875 5 L 8.9140625 5.0117188 L 8.9160156 5.0117188 C 8.8608156 5.0117188 9 5.17107 9 5.09375 L 9 6.0175781 L 7.9960938 6.0175781 C 6.2801937 6.0175781 4.9660063 7.1430531 4.9414062 8.5019531 C 4.9291063 9.1814031 5.2472344 9.8649188 5.8027344 10.324219 C 6.3582344 10.783489 7.1180937 11.023438 7.9960938 11.023438 L 11 11.023438 L 11 5.09375 C 11 3.92255 10.112866 3.0117188 8.9160156 3.0117188 L 6.0058594 3 L 6 3 z M -0.00390625 5 L -0.00390625 11 L 3.9960938 8 L -0.00390625 5 z M 15.996094 5 L 11.996094 8 L 15.996094 11 L 15.996094 5 z M 7.9960938 8.0175781 L 9 8.0175781 L 9 9.0234375 L 7.9960938 9.0234375 C 7.4766838 9.0234375 7.2023019 8.88554 7.0761719 8.78125 C 6.9500319 8.67696 6.9401062 8.6090694 6.9414062 8.5371094 C 6.9444063 8.3931794 7.0262937 8.0175781 7.9960938 8.0175781 z"/>
</svg>
